public/img/payments/visa.svg

<svg width="188" height="59" viewBox="0 0 188 59" fill="none" xmlns="http://www.w3.org/2000/svg">
<g id="visa">
<path id="Vector" d="M174.765 1.28778H162.986C159.425 1.28778 156.686 2.39413 155.042 5.98976L132.58 57.7115H148.468C148.468 57.7115 151.207 50.7968 151.755 49.1373C153.399 49.1373 169.012 49.1373 171.204 49.1373C171.752 51.0734 173.121 57.4349 173.121 57.4349H187.365L174.765 1.28778ZM156.138 37.5207C157.507 34.2016 162.164 21.7552 162.164 21.7552C162.164 22.0318 163.534 18.4362 164.082 16.5001L165.177 21.4786C165.177 21.4786 168.191 35.0314 168.738 37.7972H156.138V37.5207Z" fill="#EBFFF3"/>
<path id="Vector_2" d="M133.676 39.1805C133.676 50.7972 123.267 58.5416 107.105 58.5416C100.257 58.5416 93.683 57.1586 90.1219 55.4991L92.3134 42.7761L94.2309 43.6059C99.1615 45.8186 102.449 46.6484 108.475 46.6484C112.858 46.6484 117.515 44.9888 117.515 41.1166C117.515 38.6273 115.597 36.9678 109.571 34.202C103.818 31.4361 96.1483 27.0107 96.1483 18.9897C96.1483 7.92622 106.831 0.458374 121.897 0.458374C127.65 0.458374 132.581 1.56472 135.594 2.94765L133.402 15.1175L132.307 14.0111C129.567 12.9048 126.006 11.7984 120.802 11.7984C115.049 12.075 112.31 14.5643 112.31 16.777C112.31 19.2663 115.597 21.2024 120.802 23.6917C129.567 27.8405 133.676 32.5424 133.676 39.1805Z" fill="#EBFFF3"/>
<path id="Vector_3" d="M0 1.84139L0.273927 0.735046H23.8316C27.1188 0.735046 29.5841 1.84139 30.4059 5.43702L35.6105 30.3298C30.4059 17.0537 18.3531 6.26678 0 1.84139Z" fill="#C6FFE3"/>
<path id="Vector_4" d="M68.7566 1.28843L44.925 57.4356H28.7633L15.067 10.4158C24.9284 16.7773 33.1462 26.7344 36.1594 33.6491L37.8029 39.4574L52.595 1.01184H68.7566V1.28843Z" fill="#EBFFF3"/>
<path id="Vector_5" d="M75.0564 1.01184H90.1224L80.535 57.4356H65.469L75.0564 1.01184Z" fill="#EBFFF3"/>
</g>
</svg>

<svg width="188" height="59" fill="none" xmlns="http://www.w3.org/2000/svg"><path d="M174.765 1.288h-11.779c-3.561 0-6.3 1.106-7.944 4.702L132.58 57.71h15.888s2.739-6.914 3.287-8.574h19.449c.548 1.936 1.917 8.298 1.917 8.298h14.244l-12.6-56.147zM156.138 37.52c1.369-3.32 6.026-15.766 6.026-15.766 0 .277 1.37-3.319 1.918-5.255l1.095 4.979s3.014 13.552 3.561 16.318h-12.6v-.276zm-22.462 1.66c0 11.617-10.409 19.362-26.571 19.362-6.848 0-13.422-1.383-16.983-3.043l2.191-12.723 1.918.83c4.93 2.213 8.218 3.042 14.244 3.042 4.383 0 9.04-1.66 9.04-5.531 0-2.49-1.918-4.15-7.944-6.915-5.753-2.766-13.423-7.191-13.423-15.212 0-11.064 10.683-18.532 25.749-18.532 5.753 0 10.684 1.107 13.697 2.49l-2.192 12.17-1.095-1.107c-2.74-1.106-6.301-2.213-11.505-2.213-5.753.277-8.492 2.766-8.492 4.979 0 2.49 3.287 4.425 8.492 6.915 8.765 4.148 12.874 8.85 12.874 15.489z" fill="#EBFFF3"/><path d="M0 1.841L.274.735h23.558c3.287 0 5.752 1.106 6.574 4.702L35.61 30.33C30.406 17.054 18.353 6.267 0 1.84z" fill="#C6FFE3"/><path d="M68.757 1.288L44.925 57.436H28.763l-13.696-47.02c9.861 6.361 18.08 16.318 21.092 23.233l1.644 5.808L52.595 1.012h16.162v.276zm6.299-.276h15.066l-9.587 56.424H65.469l9.587-56.424z" fill="#EBFFF3"/></svg>
